X:419
%%etbk:tnset id:125,pos:1,rep:3x,ant:
%%etbk:tnset id:129,pos:2,rep:3x,ant:
%%etbk:tnset id:260,pos:12,rep:3x,ant:
%%etbk:wsite http://www.thesession.org/tunes/display/83
%%etbk:pldat 2016-06-22T16:40,2016-06-20T18:41,2016-05-05T14:58,2016-05-03T15:49,2016-03-05T14:26,2016-02-23T17:27,2015-10-28T17:11,2015-10-26T18:09,2015-10-07T17:40,2015-06-21T15:20,2015-03-11T17:04,2014-11-02T14:35,2014-09-04T18:15,2014-09-03T18:25,2014-09-02T18:21,2014-09-01T18:21,2014-08-31T12:14,2014-08-28T18:18,2014-08-27T18:27,2014-08-26T16:10,2014-08-24T11:25,2014-08-21T18:54,2014-08-06T18:26,2014-08-03T14:44,2014-08-02T16:16,2014-07-26T14:55,2014-07-21T20:57,2014-07-18T10:38,2014-07-13T15:08,2014-07-02T10:22,2014-06-22T16:30,2014-06-09T15:01,2014-02-26T16:40,2013-10-26T17:17
T: Rights Of Man, The
Z: Piano Box Version by Martin Fleischmann
H: Created 2013-02-19 /  Last Modified 2013-02-19
M: 4/4
L: 1/8
R: hornpipe
K: Emin
|:!1!GA | "em"!3!(3BcB !2!(3ABA !1!(3GAG !2!(3FGF | !1!EFGA !5!B!1!B!3!ef | !5!gfe!2!d !3!ed!1!B!2!d | "D"!1!c!3!BAG !2!A2GA |
"em"!3!(3BcB !2!(3ABA !1!(3GAG !2!(3FGF | !1!EFGA !5!B!1!B!3!ef | !5!gfe!2!d  "bm"!1!B!5!gfg | "em"!3!e2 !1!E2 E4:|
|:"em"!3!ga| !5!bgbg !1!efga | !5!bgbg !1!e!4!gfe | "D"!1!d!2!d!1!d!2!e !3!fefg | !5!afdf !5!a2gf |
"em"!1!e!2!e!1!ef !3!gfga | !5!bg!4!af !4!gfe!3!f | !5!gfe!2!d "bm"!1!Bg!5!fg | "em"!3!e2 !1!E2 E4:|


